X:155
T:Lasses of Lynn. JJo8.155
B:J.Johnson Choice Collection Vol 8 1758
Z:vmp.Simon Wilson 2013 www.village-music-project.org.uk
M:C|
L:1/4
Q:1/2=100
K:G
|:d/c/|BG2d/c/|BG2d|g2fe|dG2G|A>BAd|A>BAd|EFGA|FD2:|
|:a/g/|fd2a/g/|fd2d|efga|fd2d|egce|dgBe|dcBA|BG2:|

